X: 3
M: C
L: 1/16
K: D
"4"uA2 |\
(F3.A)(d3.A) (B3.d)(A3.F) | "SEGUE"G3BA3F (BE3)E3G |\
uf2 |\
(vdefg) (a3.f) (b3.g)(a3.f) | (defg) (a3.f) (ge3)(e3.f) |\
("SEGUE"defg) a3f b3ga3f | A3aa3g (fd3)d3f |
(defg) a3f b3ga3f | (defg) a3f (ge3)e3g |\
f3de3f d3BA3F | A3Bd3e (fd3)d2 |]


